site/_assets/img/03.svg

<svg viewBox="0 0 500 500" xmlns="http://www.w3.org/2000/svg"><path d="m78.1 475h81v-373.5h100.8c44.1 0 73.8 21.6 73.8 72s-27.9 76.5-68.4 76.5h-145.8v76.5h151.2c108.9 0 151.2-72.9 151.2-154.8s-50.4-146.7-157.5-146.7h-186.3z" fill="#fafafa"/></svg>

<svg viewBox="0 0 500 500" xmlns="http://www.w3.org/2000/svg">
<path d="M78.1 475H159.1V101.5H259.9C304 101.5 333.7 123.1 333.7 173.5C333.7 223.9 305.8 250 265.3 250H119.5V326.5H270.7C379.6 326.5 421.9 253.6 421.9 171.7C421.9 89.8 371.5 25 264.4 25H78.1V475Z" fill="#FFFFFF"/>
</svg>
